X: 220
T: the Fashion which the Lasses have
T: Am fasan aig no Cailleagan.
C: 
R: reel
B: Simon Fraser's "Airs and Melodies Peculiar to the Highlands of Scotland and the Isles" p.100 #2
Z: 2022 John Chambers <jc:trillian.mit.edu>
N: The book has an odd "endings" notation for the first strain, not translatable to ABC (and confusing to humans).
N: The rhythm between the strains is also wrong; fixed by copying the pattern in bars 8,9.
M: C|
L: 1/8
Q: "Dance & Song"
K: F#m	% ending on A
%%slurgraces yes
%%graceslurs yes
% = = = = = = = = = =
V: 1 staves=2
c !segno!|:\
AF F/F/F AEEc | AF F/F/F {AB}c2Bc | AF F/F/F AEEA | FGAB Tc2 [1Bc :|[2 cf || eAfA TcBBf | e<ATfe c2ca |
eAfA cAB<c | AFAB Tc2cf || ecfc TcBBf | e<ATfe | c2cb | agfa eacA | FGAB cABc !segno!|]
% = = = = = = = = = =
% Voice 2 preserves the staff layout in the book.
V: 2 clef=bass middle=d
z !segno!|:\
F2f2 E2e2 | F2f2 F2f2 | F2f2 E2e2 | c2cB A2 [1 a2 :|2 z2 || a2d2 e2e2 | a2d2 a2A2 |
a2d2 e2e2 | d2dB A2a2 || a2d2 e2e2 | a2d2 a2A2 | a2d2 c2A2 | d2cB A2[G2^E2] !segno!|]
% = = = = = = = = = =
